X: 1
T: Fight 2
B: Final Fantasy IV Original Sound Version
G: Final Fantasy IV
C: Nobuo Uematsu
S: Final Fantasy IV Original Sound Version
M: C
N: Treble is 8va first 10 bars from A
L: 1/4
Q: 1/4=170
K: Cm
V:1
z4 | z4 |: [P:A] G g ^f2- | ^f d/e/ =f e/d/ | e/c/-c3 |
c d e b | [^d^f=a]4 | [df]4 | [^c=e]4 |
[ce]2- [ce]/^f/g/e/ | d/c/ z z2 | z4 | C =B,/C/ D C/D/ | E D/E/ F E/F/ :|
[P:B] F
V:2 clef=bass octave=-2
% ..A
G/G/G/G/ G/G/F/F/ | G/G/G/G/ G/G/F/F/ |: cccc | cccc | cccc |
cccc | cccc | cccc | cccc |
cccc | cccc | cccc | [cg] [cg] [cf] [cf] | [ce] [ce] [cd] [cd] :|
% B
